X:1
T:The Hermit
M:3/4
L:1/4
K:F
 C| F3/2 C/2 F| A- F A| c3/2 d/2 c| A- F F| G3/2 G/2 G| G3/2 G/2 G|\
 G A G| E- C C/2C/2| F3/2 C/2 F| A F A| c3/2 d/2 c| A- F A| G C C|\
 C D E| F3-| F2||
